img/icons/question.svg

<svg width="25" height="24" viewBox="0 0 25 24" fill="none" xmlns="http://www.w3.org/2000/svg">
<path d="M12.7785 15.9995C13.6065 15.9995 14.2786 16.6716 14.2786 17.4996C14.2786 18.3277 13.6065 18.9997 12.7785 18.9997C11.9505 18.9997 11.2785 18.3277 11.2785 17.4996C11.2785 16.6716 11.9505 15.9995 12.7785 15.9995ZM13.7786 13.9994C13.7786 13.4384 14.1866 12.7744 14.7066 12.4873C16.2067 11.6613 17.0137 9.9642 16.7157 8.2641C16.4327 6.65101 15.1086 5.32593 13.4945 5.04292C12.3125 4.8389 11.1144 5.15492 10.2054 5.91697C9.29837 6.68001 8.77735 7.79607 8.77735 8.98014C8.77735 9.53317 9.22537 9.9802 9.77739 9.9802C10.3294 9.9802 10.7774 9.53317 10.7774 8.98014C10.7774 8.38811 11.0374 7.83007 11.4915 7.44805C11.9525 7.06203 12.5435 6.90602 13.1485 7.01303C13.9356 7.15104 14.6066 7.82307 14.7446 8.60912C14.8976 9.48017 14.5036 10.3142 13.7406 10.7342C12.5845 11.3713 11.7775 12.7134 11.7775 13.9984C11.7775 14.5515 12.2255 14.9985 12.7775 14.9985C13.3295 14.9985 13.7776 14.5515 13.7776 13.9984L13.7786 13.9994ZM24.875 18.9997V12.3393C24.875 5.85996 19.9708 0.452654 13.7106 0.0266293C10.2354 -0.203384 6.83527 1.06469 4.38318 3.51983C1.93108 5.97597 0.663026 9.37716 0.904036 12.8534C1.34405 19.2077 6.95628 24 13.9586 24H19.8758C22.6329 24 24.875 21.7569 24.875 18.9997ZM13.5755 2.02274C18.7908 2.37676 22.8749 6.90802 22.8749 12.3383V18.9987C22.8749 20.6528 21.5289 21.9989 19.8748 21.9989H13.9576C7.92232 21.9989 3.27113 18.0947 2.89812 12.7144C2.69711 9.81519 3.75315 6.97903 5.79723 4.93291C7.67931 3.0478 10.2324 1.99874 12.8895 1.99874C13.1175 1.99874 13.3465 2.00674 13.5745 2.02174L13.5755 2.02274Z" fill="white"/>
</svg>

<svg width="25" height="24" fill="none" xmlns="http://www.w3.org/2000/svg"><path d="M12.778 16a1.5 1.5 0 1 1 0 3 1.5 1.5 0 0 1 0-3Zm1-2c0-.562.409-1.226.929-1.513a4.022 4.022 0 0 0 2.009-4.223c-.283-1.613-1.607-2.938-3.222-3.221a4.034 4.034 0 0 0-3.289.874A3.995 3.995 0 0 0 8.777 8.98a1 1 0 1 0 2 0 2.002 2.002 0 0 1 2.371-1.967c.788.138 1.459.81 1.597 1.596a1.995 1.995 0 0 1-1.004 2.125c-1.156.637-1.963 1.98-1.963 3.264a1 1 0 1 0 2 0V14Zm11.097 5v-6.66c0-6.48-4.904-11.887-11.164-12.313A12.047 12.047 0 0 0 4.383 3.52a12.025 12.025 0 0 0-3.479 9.333C1.344 19.208 6.956 24 13.959 24h5.917c2.757 0 4.999-2.243 4.999-5Zm-11.3-16.977c5.216.354 9.3 4.885 9.3 10.315v6.66c0 1.655-1.346 3-3 3h-5.917c-6.036 0-10.687-3.903-11.06-9.284-.2-2.899.855-5.735 2.9-7.781a10.016 10.016 0 0 1 7.777-2.911Z" fill="#fff"/></svg>
